suite-common/icons/assets/icons/reject.svg

<svg xmlns="http://www.w3.org/2000/svg" xml:space="preserve" fill="none" viewBox="0 0 24 24">
  <path fill="#000" fill-rule="evenodd" d="M11.685 2.721a1.5 1.5 0 0 0-.66.33c-.08.071-2.009 2.424-4.286 5.229-3.039 3.742-4.175 5.169-4.268 5.36-.11.225-.128.303-.129.58q-.003.818.659 1.269c.427.291-.228.271 8.999.271 9.153 0 8.561.016 8.971-.247.371-.238.603-.597.681-1.056a1 1 0 0 0-.024-.53 2 2 0 0 0-.199-.471c-.071-.112-1.989-2.493-4.262-5.29-2.857-3.516-4.188-5.124-4.31-5.208a1.8 1.8 0 0 0-.339-.179 1.9 1.9 0 0 0-.833-.058m4.398 6.491 4.063 5.008-4.073.01c-2.24.006-5.906.006-8.146 0l-4.073-.01 4.063-5.008C10.152 6.457 11.989 4.204 12 4.204s1.848 2.253 4.083 5.008M2.7 18.817c-.248.111-.458.425-.458.683s.242.604.491.697c.158.06 18.376.06 18.534 0 .249-.093.491-.438.491-.697s-.242-.604-.491-.697c-.078-.03-2.896-.043-9.28-.041-7.589.001-9.188.01-9.287.055"/>
</svg>

<svg xmlns="http://www.w3.org/2000/svg" xml:space="preserve" fill="none" viewBox="0 0 24 24"><path d="M11.685 2.721 C 11.451 2.770,11.203 2.894,11.025 3.051 C 10.945 3.122,9.016 5.475,6.739 8.280 C 3.700 12.022,2.564 13.449,2.471 13.640 C 2.361 13.865,2.343 13.943,2.342 14.220 C 2.340 14.766,2.559 15.187,3.001 15.489 C 3.428 15.780,2.773 15.760,12.000 15.760 C 21.153 15.760,20.561 15.776,20.971 15.513 C 21.342 15.275,21.574 14.916,21.652 14.457 C 21.690 14.235,21.686 14.153,21.628 13.927 C 21.589 13.780,21.500 13.568,21.429 13.456 C 21.358 13.344,19.440 10.963,17.167 8.166 C 14.310 4.650,12.979 3.042,12.857 2.958 C 12.760 2.891,12.607 2.811,12.518 2.779 C 12.303 2.703,11.903 2.675,11.685 2.721 M16.083 9.212 L 20.146 14.220 16.073 14.230 C 13.833 14.236,10.167 14.236,7.927 14.230 L 3.854 14.220 7.917 9.212 C 10.152 6.457,11.989 4.204,12.000 4.204 C 12.011 4.204,13.848 6.457,16.083 9.212 M2.700 18.817 C 2.452 18.928,2.242 19.242,2.242 19.500 C 2.242 19.759,2.484 20.104,2.733 20.197 C 2.891 20.257,21.109 20.257,21.267 20.197 C 21.516 20.104,21.758 19.759,21.758 19.500 C 21.758 19.241,21.516 18.896,21.267 18.803 C 21.189 18.773,18.371 18.760,11.987 18.762 C 4.398 18.763,2.799 18.772,2.700 18.817 " stroke="none" fill-rule="evenodd" fill="black"></path></svg>
